remix/Finance/percent-fill.svg

<svg viewBox="0 0 24 24" fill="currentColor" xmlns="http://www.w3.org/2000/svg"><path d="M17.5049 21.0027C15.5719 21.0027 14.0049 19.4357 14.0049 17.5027C14.0049 15.5697 15.5719 14.0027 17.5049 14.0027C19.4379 14.0027 21.0049 15.5697 21.0049 17.5027C21.0049 19.4357 19.4379 21.0027 17.5049 21.0027ZM6.50488 10.0027C4.57189 10.0027 3.00488 8.43574 3.00488 6.50275C3.00488 4.56975 4.57189 3.00275 6.50488 3.00275C8.43788 3.00275 10.0049 4.56975 10.0049 6.50275C10.0049 8.43574 8.43788 10.0027 6.50488 10.0027ZM19.076 3.51747L20.4902 4.93168L4.93382 20.488L3.5196 19.0738L19.076 3.51747Z"/></svg>

<svg viewBox="0 0 24 24" xmlns="http://www.w3.org/2000/svg"><path fill="none" d="M0 0h24v24H0Z"/><path d="M17.5 21v0c-1.94 0-3.5-1.57-3.5-3.5 0-1.94 1.56-3.5 3.5-3.5v0c1.93 0 3.5 1.56 3.5 3.5 0 1.93-1.57 3.5-3.5 3.5Zm-11-11v0C4.56 10 3 8.43 3 6.5 3 4.56 4.56 3 6.5 3v0C8.43 3 10 4.56 10 6.5 10 8.43 8.43 10 6.5 10ZM19.07 3.51l1.41 1.41L4.92 20.475l-1.42-1.42 15.55-15.56Z"/></svg>
